img/advantages/3.svg

<svg width="50" height="50" viewBox="0 0 50 50" fill="none" xmlns="http://www.w3.org/2000/svg">
<path fill-rule="evenodd" clip-rule="evenodd" d="M11.9235 0.259252L11.6678 0.514859V4.16991V7.82497L11.9235 8.08057C12.2617 8.41888 12.7404 8.41888 13.0786 8.08057L13.3343 7.82497V4.74748V1.67009H26.0683H38.8022L42.9677 5.83646L47.1331 10.0028H43.5661H39.9991V7.34208V4.68123L39.7434 4.42562C39.5823 4.26439 39.3687 4.16991 39.1658 4.16991C38.9629 4.16991 38.7494 4.26439 38.5883 4.42562L38.3326 4.68123V7.91965V11.1581L38.5883 11.4137L38.8439 11.6694H43.5879H48.3319V30.0014V48.3335H36.9217H25.5115L25.2559 48.5892C25.0947 48.7503 25.0002 48.9638 25.0002 49.1667C25.0002 49.3696 25.0947 49.5832 25.2559 49.7443L25.5115 50H37.4993H49.4871L49.7427 49.7443L49.9984 49.4887V29.997V10.5053L44.7644 5.25265L39.5304 0L25.8548 0.00177073L12.1791 0.00354146L11.9235 0.259252ZM20.2562 6.92545C20.095 7.08658 20.0005 7.30011 20.0005 7.50301C20.0005 7.70591 20.095 7.91944 20.2562 8.08057L20.5119 8.33628H27.5H34.4882L34.7438 8.08057C35.0821 7.74237 35.0821 7.26365 34.7438 6.92545L34.4882 6.66974H27.5H20.5119L20.2562 6.92545ZM11.1848 10.1095C9.69241 10.3788 8.4123 11.0711 7.24071 12.2423C5.85768 13.6248 5.15815 15.143 5.03691 17.0255C4.90827 19.0221 5.42105 20.5066 6.94646 22.554C9.17787 25.549 10.0012 27.2672 10.0012 28.9291C10.0012 29.6065 10.3081 30.0014 10.8345 30.0014C11.0374 30.0014 11.2509 29.9069 11.4121 29.7457C11.6253 29.5325 11.6675 29.3899 11.666 28.8864C11.6608 27.1685 10.8046 25.0252 9.29161 22.9423C8.90851 22.4151 8.31907 21.6056 7.9818 21.1435C6.89771 19.6584 6.51482 18.2632 6.7496 16.6527C7.11374 14.1542 9.15141 12.1152 11.6476 11.7514C16.0748 11.1061 19.5684 15.5275 17.8951 19.658C17.7512 20.013 17.3576 20.6814 17.0203 21.1435C16.6831 21.6056 16.0902 22.4166 15.7028 22.9459C14.9162 24.0206 13.8499 26.0798 13.5865 27.0329C13.4649 27.4727 13.3986 28.2517 13.363 29.6629L13.3123 31.668H11.9032C10.1477 31.668 9.79053 31.7675 9.11235 32.4456C8.32345 33.2346 8.09326 34.2483 8.59041 34.7454C9.10704 35.2621 10.0012 34.896 10.0012 34.1678C10.0012 33.9649 10.0957 33.7514 10.257 33.5902C10.5105 33.3366 10.5287 33.3345 12.5011 33.3345C14.4734 33.3345 14.4917 33.3366 14.7452 33.5902C14.9064 33.7514 15.0009 33.9649 15.0009 34.1678C15.0009 34.596 15.406 35.0011 15.8342 35.0011C16.5287 35.0011 16.8223 34.3443 16.5436 33.4141C16.3963 32.9226 15.6047 32.0052 15.2511 31.9165L15.0009 31.8537V30.111C15.0009 27.1075 15.4253 26.074 18.1689 22.3978C19.5725 20.517 20.0904 18.9682 19.9652 17.0255C19.844 15.1431 19.1447 13.6252 17.7614 12.2419C16.3081 10.7886 14.8067 10.1242 12.8135 10.0523C12.212 10.0306 11.4791 10.0564 11.1848 10.1095ZM20.2562 10.2585C20.095 10.4197 20.0005 10.6332 20.0005 10.8361C20.0005 11.039 20.095 11.2525 20.2562 11.4137L20.5119 11.6694H25.8335H31.1551L31.4107 11.4137C31.5719 11.2525 31.6664 11.039 31.6664 10.8361C31.6664 10.6332 31.5719 10.4197 31.4107 10.2585L31.1551 10.0028H25.8335H20.5119L20.2562 10.2585ZM31.5978 18.4823C29.4626 18.8908 27.7838 19.7881 26.2463 21.3427C24.905 22.6987 24.0412 24.2397 23.5742 26.1097C23.3269 27.1004 23.3269 29.5694 23.5742 30.56C24.0412 32.43 24.905 33.971 26.2463 35.3271C28.0967 37.1979 30.257 38.1685 32.8642 38.3004C35.7619 38.4471 38.3205 37.4366 40.4158 35.3179C41.78 33.9383 42.633 32.4281 43.073 30.6129C43.4096 29.2242 43.3745 26.8114 43.006 26.0026C42.8358 25.6292 42.3754 25.4622 41.9742 25.6284C41.4735 25.8358 41.4134 26.0519 41.5642 27.1035C42.031 30.3597 40.6004 33.512 37.8333 35.325C34.6138 37.4344 30.2671 36.9847 27.5079 34.2565C25.8378 32.6051 25.0568 30.7182 25.0568 28.3349C25.0568 26.5204 25.4238 25.2394 26.3502 23.8203C28.7188 20.1919 33.3381 18.988 37.2615 20.9766C37.9378 21.3194 38.168 21.3219 38.4997 20.9902C38.703 20.7869 38.7544 20.6422 38.7294 20.3433C38.703 20.0287 38.6211 19.9059 38.2805 19.6702C37.7832 19.3261 36.503 18.8114 35.5989 18.5919C34.6662 18.3656 32.5157 18.3067 31.5978 18.4823ZM42.0122 20.2504C41.8502 20.387 39.8673 22.5197 37.6054 24.9897C35.3437 27.4597 33.4585 29.4806 33.4161 29.4806C33.3739 29.4806 32.5167 28.497 31.5114 27.2947C29.5832 24.989 29.385 24.8263 28.8613 25.1198C28.4478 25.3515 28.2854 25.7695 28.4672 26.134C28.7049 26.6106 32.8039 31.4604 33.0723 31.5827C33.2072 31.6441 33.4367 31.6645 33.5823 31.628C33.7569 31.5841 35.4631 29.7964 38.5896 26.3814C43.0475 21.5121 43.3322 21.1781 43.3322 20.8175C43.3322 20.5271 43.2656 20.3814 43.0578 20.218C42.6981 19.935 42.3743 19.9452 42.0122 20.2504ZM4.63704 36.7887C3.03413 37.0901 1.36686 38.4016 0.627221 39.943C0.0898636 41.0626 0.00195312 41.6455 0.00195312 44.0868C0.00195312 46.1444 0.0033072 46.1569 0.257664 46.4112C0.467545 46.6212 0.616493 46.6669 1.09094 46.6669H1.6685V48.0777C1.6685 49.4369 1.67788 49.4981 1.92421 49.7443L2.17982 50H12.5011H22.8223L23.0779 49.7443C23.3243 49.4981 23.3336 49.4369 23.3336 48.0777V46.6669H23.9112C24.3856 46.6669 24.5346 46.6212 24.7445 46.4112C24.9988 46.1569 25.0002 46.1444 25.0002 44.0868C25.0002 41.6455 24.9123 41.0626 24.3749 39.943C23.6149 38.359 21.9594 37.0836 20.2678 36.779C19.8909 36.711 17.8682 36.6676 15.0812 36.6676H10.5126L10.257 36.9233C9.94656 37.2336 9.92313 37.6938 10.2002 38.0362L10.3992 38.2821L15.278 38.3342L20.1568 38.3862L20.8526 38.7159C21.8207 39.1745 22.424 39.7651 22.8925 40.7128L23.2816 41.4998L23.3181 43.2501L23.3547 45.0004H12.5011H1.64746L1.68454 43.2557C1.72089 41.5496 1.72891 41.4956 2.05077 40.8152C2.50365 39.8577 3.1008 39.2432 4.01948 38.789C4.7086 38.4485 4.88588 38.4077 5.94153 38.3473C6.995 38.2869 7.12312 38.2575 7.30289 38.0354C7.57954 37.6938 7.5559 37.2334 7.24571 36.9233C7.01083 36.6883 6.91573 36.6685 6.07392 36.6793C5.5701 36.6856 4.92348 36.735 4.63704 36.7887ZM21.6671 47.5002V48.3335H12.5011H3.33505V47.5002V46.6669H12.5011H21.6671V47.5002Z" fill="white" fill-opacity="0.6"/>
<path fill-rule="evenodd" clip-rule="evenodd" d="M31.5978 18.4824C29.4625 18.8909 27.7838 19.7881 26.2463 21.3427C24.9049 22.6987 24.0412 24.2398 23.5742 26.1097C23.3268 27.1004 23.3268 29.5694 23.5742 30.5601C24.0412 32.43 24.9049 33.9711 26.2463 35.3271C28.0967 37.1979 30.257 38.1686 32.8642 38.3004C35.7619 38.4471 38.3205 37.4366 40.4157 35.3179C41.78 33.9384 42.633 32.4282 43.0729 30.613C43.4096 29.2242 43.3745 26.8115 43.006 26.0027C42.8358 25.6293 42.3754 25.4622 41.9742 25.6284C41.4735 25.8358 41.4134 26.0519 41.5642 27.1035C42.0309 30.3598 40.6004 33.512 37.8333 35.325C34.6137 37.4345 30.2671 36.9847 27.5079 34.2566C25.8378 32.6051 25.0568 30.7183 25.0568 28.3349C25.0568 26.5204 25.4238 25.2394 26.3502 23.8203C28.7187 20.1919 33.3381 18.9881 37.2615 20.9767C37.9378 21.3195 38.168 21.322 38.4997 20.9902C38.7029 20.7869 38.7544 20.6422 38.7294 20.3434C38.7029 20.0287 38.6211 19.9059 38.2805 19.6702C37.7832 19.3262 36.503 18.8114 35.5989 18.5919C34.6661 18.3656 32.5157 18.3068 31.5978 18.4824ZM42.0122 20.2505C41.8502 20.387 39.8672 22.5197 37.6054 24.9897C35.3437 27.4598 33.4585 29.4807 33.4161 29.4807C33.3738 29.4807 32.5167 28.4971 31.5114 27.2948C29.5832 24.989 29.3849 24.8263 28.8612 25.1198C28.4477 25.3516 28.2853 25.7696 28.4672 26.134C28.7049 26.6106 32.8039 31.4604 33.0723 31.5827C33.2072 31.6441 33.4366 31.6646 33.5822 31.628C33.7568 31.5841 35.463 29.7965 38.5896 26.3814C43.0475 21.5122 43.3322 21.1781 43.3322 20.8175C43.3322 20.5271 43.2655 20.3814 43.0577 20.2181C42.6981 19.9351 42.3742 19.9452 42.0122 20.2505Z" fill="#F3C469"/>
</svg>

<svg width="50" height="50" viewBox="0 0 50 50" fill="none" xmlns="http://www.w3.org/2000/svg"><path fill-rule="evenodd" clip-rule="evenodd" d="M11.924.26l-.256.255v7.31l.256.256c.338.338.816.338 1.155 0l.255-.256V1.67h25.468l4.166 4.166 4.165 4.167H40V4.68l-.256-.255a.84.84 0 00-.577-.256.84.84 0 00-.578.256l-.255.255v6.477l.255.256.256.255h9.488v36.664h-22.82l-.256.256a.84.84 0 00-.256.578.84.84 0 00.256.577l.256.256h23.975l.256-.256.255-.255V10.505l-5.234-5.252L39.53 0 25.855.002 12.179.004l-.255.255zm8.332 6.665a.84.84 0 00-.256.578.84.84 0 00.256.578l.256.255h13.976l.256-.255c.338-.339.338-.817 0-1.156l-.256-.255H20.512l-.256.255zm-9.071 3.185c-1.493.269-2.773.961-3.944 2.132-1.383 1.383-2.083 2.901-2.204 4.784-.129 1.996.384 3.48 1.91 5.528C9.176 25.549 10 27.267 10 28.929c0 .678.307 1.072.834 1.072a.84.84 0 00.577-.255c.213-.213.255-.356.254-.86-.005-1.717-.861-3.86-2.374-5.944l-1.31-1.799c-1.084-1.485-1.467-2.88-1.232-4.49.364-2.499 2.401-4.538 4.898-4.902 4.427-.645 7.92 3.777 6.247 7.907-.144.355-.537 1.023-.875 1.485l-1.317 1.803c-.787 1.075-1.853 3.134-2.117 4.087-.121.44-.187 1.219-.223 2.63l-.05 2.005h-1.41c-1.755 0-2.112.1-2.79.778-.79.789-1.02 1.802-.523 2.3.517.516 1.411.15 1.411-.578a.84.84 0 01.256-.578c.254-.253.272-.256 2.244-.256 1.972 0 1.99.003 2.244.256a.84.84 0 01.256.578c0 .428.405.833.833.833.695 0 .988-.657.71-1.587-.148-.491-.94-1.409-1.293-1.498l-.25-.062V30.11c0-3.003.424-4.037 3.168-7.713 1.404-1.881 1.921-3.43 1.796-5.372-.121-1.883-.82-3.4-2.204-4.784-1.453-1.453-2.954-2.118-4.947-2.19-.602-.021-1.335.004-1.63.058zm9.071.149a.84.84 0 00-.256.577.84.84 0 00.256.578l.256.255h10.643l.256-.255a.84.84 0 00.255-.578.84.84 0 00-.255-.578l-.256-.255H20.512l-.256.255zm11.342 8.223c-2.135.409-3.814 1.306-5.352 2.86-1.341 1.357-2.205 2.898-2.672 4.768-.247.99-.247 3.46 0 4.45.467 1.87 1.331 3.411 2.672 4.767 1.85 1.87 4.011 2.842 6.618 2.973 2.898.147 5.457-.863 7.552-2.982 1.364-1.38 2.217-2.89 2.657-4.705.337-1.389.301-3.802-.067-4.61-.17-.374-.63-.54-1.032-.375-.5.208-.56.424-.41 1.476.467 3.256-.964 6.408-3.73 8.221-3.22 2.11-7.567 1.66-10.326-1.069-1.67-1.65-2.451-3.538-2.451-5.921 0-1.815.367-3.096 1.293-4.515 2.369-3.628 6.988-4.832 10.911-2.843.677.342.907.345 1.239.013.203-.203.254-.348.23-.647-.027-.314-.109-.437-.45-.673-.497-.344-1.777-.859-2.681-1.078-.933-.226-3.083-.285-4.001-.11zm10.414 1.768c-.162.137-2.145 2.27-4.407 4.74-2.261 2.47-4.146 4.49-4.189 4.49-.042 0-.9-.983-1.905-2.185-1.928-2.306-2.126-2.469-2.65-2.175-.413.232-.576.65-.394 1.014.238.477 4.337 5.326 4.605 5.449a.906.906 0 00.51.045c.175-.044 1.881-1.832 5.008-5.247 4.457-4.869 4.742-5.203 4.742-5.564 0-.29-.066-.436-.274-.599-.36-.283-.684-.273-1.046.032zM4.637 36.79c-1.603.301-3.27 1.613-4.01 3.154-.537 1.12-.625 1.703-.625 4.144 0 2.057.001 2.07.256 2.324.21.21.358.256.833.256h.578v1.41c0 1.36.009 1.421.255 1.667L2.18 50h20.642l.256-.256c.246-.246.256-.307.256-1.666v-1.411h.577c.475 0 .624-.046.833-.256.255-.254.256-.267.256-2.324 0-2.442-.088-3.024-.625-4.144-.76-1.584-2.416-2.86-4.107-3.164-.377-.068-2.4-.111-5.187-.111h-4.568l-.256.255a.814.814 0 00-.057 1.113l.2.246 4.878.052 4.879.052.696.33c.968.459 1.571 1.05 2.04 1.997l.389.787.036 1.75.037 1.75H1.647l.038-1.744c.036-1.706.044-1.76.366-2.44.453-.958 1.05-1.573 1.968-2.027.69-.34.867-.381 1.923-.442 1.053-.06 1.181-.09 1.36-.312a.814.814 0 00-.056-1.112c-.235-.235-.33-.255-1.172-.244-.504.007-1.15.056-1.437.11zm17.03 10.71v.834H3.335v-1.668h18.332v.833z" fill="#fff" fill-opacity=".6"/><path fill-rule="evenodd" clip-rule="evenodd" d="M31.598 18.482c-2.136.409-3.814 1.306-5.352 2.86-1.341 1.357-2.205 2.898-2.672 4.768-.247.99-.247 3.46 0 4.45.467 1.87 1.33 3.411 2.672 4.767 1.85 1.87 4.011 2.842 6.618 2.973 2.898.147 5.457-.863 7.552-2.982 1.364-1.38 2.217-2.89 2.657-4.705.337-1.389.301-3.802-.067-4.61-.17-.374-.63-.54-1.032-.375-.5.208-.56.424-.41 1.476.467 3.256-.964 6.408-3.73 8.221-3.22 2.11-7.567 1.66-10.326-1.068-1.67-1.652-2.451-3.539-2.451-5.922 0-1.815.367-3.096 1.293-4.515 2.369-3.628 6.988-4.832 10.911-2.843.677.343.907.345 1.239.013.203-.203.254-.348.23-.647-.027-.314-.109-.437-.45-.673-.497-.344-1.777-.859-2.681-1.078-.933-.226-3.083-.285-4.001-.11zm10.414 1.768c-.162.137-2.145 2.27-4.407 4.74-2.261 2.47-4.146 4.49-4.189 4.49-.042 0-.9-.983-1.905-2.185-1.928-2.306-2.126-2.469-2.65-2.175-.413.232-.576.65-.394 1.014.238.477 4.337 5.326 4.605 5.449a.905.905 0 00.51.045c.175-.044 1.881-1.831 5.008-5.247 4.457-4.869 4.742-5.203 4.742-5.564 0-.29-.066-.436-.274-.599-.36-.283-.684-.273-1.046.032z" fill="#F3C469"/></svg>
